Papirus/22x22/apps/preferences-system-brightness-lock.svg

<svg xmlns="http://www.w3.org/2000/svg" width="22" height="22" version="1">
 <path opacity=".2" d="m11 1.5-3.3145 1.9996h-4.6855v4.6855l-2 3.3149 2 3.314v4.6856h4.6855l3.3145 2 3.3145-2.0004h4.6855v-4.6856l2-3.3144-2-3.3144v-4.6856h-4.6855z"/>
 <path fill="#5f7c8a" d="m11 1-3.3145 1.9996h-4.6855v4.6855l-2 3.3149 2 3.314v4.6856h4.6855l3.3145 2 3.3145-2.0004h4.6855v-4.6856l2-3.3144-2-3.3144v-4.6856h-4.6855z"/>
 <path fill="#fff" d="m11 5a6 6 0 0 0 -6 6 6 6 0 0 0 6 6v-12z"/>
 <path fill="#fff" opacity=".2" d="m11 1l-3.3145 2h-4.6855v0.5h4.6855l3.3145-2 3.314 2h4.686v-0.5h-4.686l-3.314-2zm-8 6.6855l-2 3.3145 0.1504 0.25 1.8496-3.0645v-0.5zm16 0v0.5l1.85 3.0645 0.15-0.25-2-3.3145z"/>
</svg>

<svg xmlns="http://www.w3.org/2000/svg" width="22" height="22" version="1">
 <path style="fill:#325f78" d="M 11,0 7.6855,2.9996 3,2.9996 3,7.6851 0,11 l 3,3.314 0,4.6856 4.6855,0 L 11,22 l 3.3145,-3.0008 4.6855,0 0,-4.6856 3,-3.3144 -3,-3.3144 0,-4.6856 -4.6855,0 z"/>
 <path style="opacity:0.2" d="m 11,5.5 a 6,6 0 0 0 -6,6 6,6 0 0 0 6,6 l 0,-12 z"/>
 <path style="fill:#ffffff" d="m 11,5 a 6,6 0 0 0 -6,6 6,6 0 0 0 6,6 L 11,5 Z"/>
 <path style="opacity:0.1;fill:#ffffff" d="M 11,0 7.6855469,3 3,3 3,3.5 7.6855469,3.5 11,0.5 14.314453,3.5 19,3.5 19,3 14.314453,3 11,0 Z M 3,7.6855469 0,11 0.2265625,11.25 3,8.1855469 l 0,-0.5 z m 16,0 0,0.5 L 21.773438,11.25 22,11 19,7.6855469 Z"/>
</svg>
